Catalina-light/actions/22/distribute-graph.svg

<?xml version="1.0" encoding="UTF-8" standalone="no"?>
<svg
   xmlns:dc="http://purl.org/dc/elements/1.1/"
   xmlns:cc="http://creativecommons.org/ns#"
   xmlns:rdf="http://www.w3.org/1999/02/22-rdf-syntax-ns#"
   xmlns:svg="http://www.w3.org/2000/svg"
   xmlns="http://www.w3.org/2000/svg"
   xmlns:sodipodi="http://sodipodi.sourceforge.net/DTD/sodipodi-0.dtd"
   xmlns:inkscape="http://www.inkscape.org/namespaces/inkscape"
   viewBox="0 0 22 22"
   id="svg2"
   version="1.1"
   inkscape:version="0.91 r13725"
   sodipodi:docname="distribute-graph.svg">
  <metadata
     id="metadata11">
    <rdf:RDF>
      <cc:Work
         rdf:about="">
        <dc:format>image/svg+xml</dc:format>
        <dc:type
           rdf:resource="http://purl.org/dc/dcmitype/StillImage" />
      </cc:Work>
    </rdf:RDF>
  </metadata>
  <sodipodi:namedview
     pagecolor="#ffffff"
     bordercolor="#666666"
     borderopacity="1"
     objecttolerance="10"
     gridtolerance="10"
     guidetolerance="10"
     inkscape:pageopacity="0"
     inkscape:pageshadow="2"
     inkscape:window-width="640"
     inkscape:window-height="480"
     id="namedview9"
     showgrid="false"
     inkscape:zoom="28.954545"
     inkscape:cx="4.8524333"
     inkscape:cy="11"
     inkscape:current-layer="svg2" />
  <defs
     id="defs3051">
    <style
       type="text/css"
       id="current-color-scheme">
      .ColorScheme-Text {
        color:#4d4d4d;
      }
      .ColorScheme-Highlight {
        color:#3daee9;
      }
      </style>
  </defs>
  <g
     id="g3257">
    <path
       inkscape:connector-curvature="0"
       id="path6"
       class="ColorScheme-Text"
       d="m 8.35,5.4890625 -4,3.1999995 0.5,0.623438 4,-3.2 -0.5,-0.6234375 z m 1.3578125,0.05625 -0.615625,0.5109375 3.9999995,4.8 0.615626,-0.510937 -4.0000005,-4.8000005 z m 7.3593745,0.032813 -3.2,4.7999995 0.665626,0.44375 3.2,-4.7999995 -0.665626,-0.44375 z M 3.8,9.798438 l 0,5.6 0.8,0 0,-5.6 -0.8,0 z m 0.8,5.6 0,0.8 4.8,0 0,-0.8 -4.8,0 z m 8.4875,-4.246876 -3.2,4 0.625,0.498438 3.2,-4 -0.625,-0.498438 z m 1.425,0 -0.625,0.498438 3.2,4 0.625,-0.498438 -3.2,-4 z"
       style="color:#4d4d4d;fill:currentColor;fill-opacity:1;stroke:none" />
    <path
       inkscape:connector-curvature="0"
       id="path10"
       class="ColorScheme-Highlight"
       d="M 9,4.2 A 1.1999967,1.2 0 0 0 7.8,5.4 1.1999967,1.2 0 0 0 9,6.6 1.1999967,1.2 0 0 0 10.2,5.4 1.1999967,1.2 0 0 0 9,4.2 Z m 8.8,0 A 1.1999967,1.2 0 0 0 16.6,5.4 1.1999967,1.2 0 0 0 17.8,6.6 1.1999967,1.2 0 0 0 19,5.4 1.1999967,1.2 0 0 0 17.8,4.2 Z M 4.2,8.2 A 1.1999967,1.2 0 0 0 3,9.4 1.1999967,1.2 0 0 0 4.2,10.6 1.1999967,1.2 0 0 0 5.4,9.4 1.1999967,1.2 0 0 0 4.2,8.2 Z m 9.6,1.6 A 1.1999967,1.2 0 0 0 12.6,11 1.1999967,1.2 0 0 0 13.8,12.2 1.1999967,1.2 0 0 0 15,11 1.1999967,1.2 0 0 0 13.8,9.8 Z M 4.2,14.6 A 1.1999967,1.2 0 0 0 3,15.8 1.1999967,1.2 0 0 0 4.2,17 1.1999967,1.2 0 0 0 5.4,15.8 1.1999967,1.2 0 0 0 4.2,14.6 Z m 5.6,0 A 1.1999967,1.2 0 0 0 8.6,15.8 1.1999967,1.2 0 0 0 9.8,17 1.1999967,1.2 0 0 0 11,15.8 1.1999967,1.2 0 0 0 9.8,14.6 Z m 8,0 a 1.1999967,1.2 0 0 0 -1.2,1.2 1.1999967,1.2 0 0 0 1.2,1.2 1.1999967,1.2 0 0 0 1.2,-1.2 1.1999967,1.2 0 0 0 -1.2,-1.2 z"
       style="color:#3daee9;fill:currentColor;fill-opacity:1;stroke:none" />
  </g>
</svg>

<svg version="1.1" viewBox="0 0 22 22" xmlns="http://www.w3.org/2000/svg">
<defs>
<style id="current-color-scheme" type="text/css">.ColorScheme-Text {
        color:#4d4d4d;
      }
      .ColorScheme-Highlight {
        color:#3daee9;
      }</style>
</defs>
<g fill="currentColor">
<path class="ColorScheme-Text" d="m8.35 5.4891-4 3.2 0.5 0.62344 4-3.2-0.5-0.62344zm1.3578 0.05625-0.61562 0.51094 4 4.8 0.61563-0.51094-4-4.8zm7.3594 0.032813-3.2 4.8 0.66563 0.44375 3.2-4.8-0.66563-0.44375zm-13.267 4.2203v5.6h0.8v-5.6h-0.8zm0.8 5.6v0.8h4.8v-0.8h-4.8zm8.4875-4.2469-3.2 4 0.625 0.49844 3.2-4-0.625-0.49844zm1.425 0-0.625 0.49844 3.2 4 0.625-0.49844-3.2-4z" color="#4d4d4d"/>
<path class="ColorScheme-Highlight" d="m9 4.2a1.2 1.2 0 0 0-1.2 1.2 1.2 1.2 0 0 0 1.2 1.2 1.2 1.2 0 0 0 1.2-1.2 1.2 1.2 0 0 0-1.2-1.2zm8.8 0a1.2 1.2 0 0 0-1.2 1.2 1.2 1.2 0 0 0 1.2 1.2 1.2 1.2 0 0 0 1.2-1.2 1.2 1.2 0 0 0-1.2-1.2zm-13.6 4a1.2 1.2 0 0 0-1.2 1.2 1.2 1.2 0 0 0 1.2 1.2 1.2 1.2 0 0 0 1.2-1.2 1.2 1.2 0 0 0-1.2-1.2zm9.6 1.6a1.2 1.2 0 0 0-1.2 1.2 1.2 1.2 0 0 0 1.2 1.2 1.2 1.2 0 0 0 1.2-1.2 1.2 1.2 0 0 0-1.2-1.2zm-9.6 4.8a1.2 1.2 0 0 0-1.2 1.2 1.2 1.2 0 0 0 1.2 1.2 1.2 1.2 0 0 0 1.2-1.2 1.2 1.2 0 0 0-1.2-1.2zm5.6 0a1.2 1.2 0 0 0-1.2 1.2 1.2 1.2 0 0 0 1.2 1.2 1.2 1.2 0 0 0 1.2-1.2 1.2 1.2 0 0 0-1.2-1.2zm8 0a1.2 1.2 0 0 0-1.2 1.2 1.2 1.2 0 0 0 1.2 1.2 1.2 1.2 0 0 0 1.2-1.2 1.2 1.2 0 0 0-1.2-1.2z" color="#3daee9"/>
</g>
</svg>
